X:55
T:New Lango Lee. TJD.55
T:Banks of the Dee,aka. TJD.55
M:6/8
L:1/8
Q:1/4=90
S:T.J.Dixon MS2, Lincolnshire, early 19thC
R:Song
C:Song
A:Lincolnshire, Holton le Moor
Z:vmp.R.Greig2010
K:G
D>EF G>AB|c>ed cBA|BGE DEG|BcAG2:|!
c|B2cd2d|e>dc dBG|Bcd efg|G>AG FED|!
cec BdB|A>GA BGE|G>FE Ddc|BcAG2|]

